;FLAVOR:Marlin
;TIME:21508
;Filament used: 49.4174m
;Layer height: 0.4
;MINX:29.496
;MINY:19.271
;MINZ:0.2
;MAXX:228.79
;MAXY:160.414
;MAXZ:79.4
;TARGET_MACHINE.NAME:Prusa i3 Mk3/Mk3s
;Generated with Cura_SteamEngine 5.8.1
M82 ;absolute extrusion mode
G21 ; set units to millimeters
G90 ; use absolute positioning
M82 ; absolute extrusion mode
M104 S200 ; set extruder temp
M140 S60 ; set bed temp
M190 S60 ; wait for bed temp
M109 S200 ; wait for extruder temp
G28 W ; home all without mesh bed level
G80 ; mesh bed leveling
G92 E0.0 ; reset extruder distance position
G1 Y-3.0 F1000.0 ; go outside print area
G1 X60.0 E9.0 F1000.0 ; intro line
G1 X100.0 E21.5 F1000.0 ; intro line
G92 E0.0 ; reset extruder distance position
G92 E0
G92 E0
G1 F2100 E-0.8
;LAYER_COUNT:199
;LAYER:0
M107
G0 F3600 X72.092 Y36.574 Z0.2
;TYPE:SKIRT
G1 F2100 E0
G1 F1800 X72.374 Y36.154 E0.01683
G1 X72.719 Y35.784 E0.03365
G1 X73.169 Y35.439 E0.05251
G1 X73.892 Y34.981 E0.08098
G1 X98.297 Y20.09 E1.03186
G1 X98.94 Y19.71 E1.0567
G1 X99.394 Y19.488 E1.07351
G1 X99.878 Y19.34 E1.09034
G1 X100.378 Y19.271 E1.10713
G1 X100.884 Y19.281 E1.12396
G1 X101.381 Y19.37 E1.14076
G1 X101.939 Y19.573 E1.16051
G1 X104.578 Y20.824 E1.25764
G1 X107.084 Y21.923 E1.34866
G1 X109.63 Y22.957 E1.44005
G1 X112.168 Y23.903 E1.53014
G1 X114.75 Y24.785 E1.62089
G1 X117.397 Y25.605 E1.71306
G1 X120.006 Y26.334 E1.80316
G1 X122.715 Y27.007 E1.896
G1 X125.361 Y27.587 E1.98609
G1 X128.03 Y28.093 E2.07645
G1 X130.747 Y28.529 E2.16797
G1 X133.482 Y28.889 E2.25972
G1 X136.19 Y29.168 E2.35027
G1 X138.893 Y29.368 E2.44041
G1 X141.647 Y29.495 E2.53211
G1 X144.782 Y29.545 E2.63639
G1 X168.335 Y29.545 E3.41977
G1 X169.169 Y29.557 E3.44751
G1 X170.853 Y29.727 E3.50381
G1 X173.629 Y29.962 E3.59647
G1 X176.346 Y30.115 E3.68698
G1 X179.097 Y30.192 E3.77851
G1 X181.814 Y30.192 E3.86888
G1 X184.567 Y30.113 E3.96048
G1 X187.316 Y29.956 E4.05206
G1 X190.447 Y29.689 E4.15658
G1 X190.948 Y29.669 E4.17326
G1 X215.678 Y29.668 E4.99578
G1 X216.376 Y29.677 E5.019
G1 X216.88 Y29.724 E5.03583
G1 X217.37 Y29.849 E5.05265
G1 X217.834 Y30.05 E5.06947
G1 X218.26 Y30.321 E5.08626
G1 X218.639 Y30.656 E5.10309
G1 X218.96 Y31.047 E5.11991
G1 X219.215 Y31.483 E5.13671
G1 X219.399 Y31.954 E5.15353
G1 X219.506 Y32.448 E5.17034
G1 X219.543 Y33.108 E5.19233
G1 X219.544 Y48.911 E5.71794
G1 X219.584 Y51.708 E5.81098
G1 X219.699 Y54.425 E5.90143
G1 X219.894 Y57.171 E5.99299
G1 X220.162 Y59.877 E6.08343
G1 X220.51 Y62.6 E6.17473
G1 X220.935 Y65.301 E6.26568
G1 X221.438 Y68.009 E6.35728
G1 X222.01 Y70.666 E6.44768
G1 X222.658 Y73.313 E6.53832
G1 X223.385 Y75.953 E6.6294
G1 X224.195 Y78.6 E6.72147
G1 X225.07 Y81.195 E6.81255
G1 X226.006 Y83.731 E6.90246
G1 X227.04 Y86.306 E6.99475
G1 X228.542 Y89.774 E7.12045
G1 X228.703 Y90.253 E7.13726
G1 X228.786 Y90.752 E7.15408
G1 X228.79 Y91.258 E7.17091
G1 X228.714 Y91.757 E7.1877
G1 X228.519 Y92.334 E7.20796
G1 X227.756 Y94.039 E7.27009
G1 X226.692 Y96.55 E7.36079
G1 X225.689 Y99.115 E7.45239
G1 X224.772 Y101.674 E7.54281
G1 X223.923 Y104.268 E7.63359
G1 X223.147 Y106.888 E7.72447
G1 X222.441 Y109.545 E7.81591
G1 X221.81 Y112.228 E7.90758
G1 X221.261 Y114.899 E7.99828
G1 X220.788 Y117.573 E8.08859
G1 X220.387 Y120.294 E8.18007
G1 X220.063 Y123.027 E8.27161
G1 X219.819 Y125.734 E8.36201
G1 X219.649 Y128.487 E8.45375
G1 X219.55 Y131.684 E8.56013
G1 X219.532 Y132.97 E8.60291
G1 X219.425 Y133.839 E8.63203
G1 X219.215 Y135.347 E8.68267
G1 X219.091 Y136.153 E8.70979
G1 X218.912 Y136.93 E8.73631
G1 X218.549 Y138.383 E8.78613
G1 X218.316 Y139.261 E8.81634
G1 X218.075 Y139.954 E8.84074
G1 X217.527 Y141.451 E8.89376
G1 X217.232 Y142.225 E8.92131
G1 X216.949 Y142.83 E8.94353
G1 X216.208 Y144.338 E8.99941
G1 X215.884 Y144.975 E9.02318
G1 X215.443 Y145.719 E9.05195
G1 X214.587 Y147.074 E9.10526
G1 X214.201 Y147.666 E9.12876
G1 X213.745 Y148.279 E9.15417
G1 X212.694 Y149.609 E9.21055
G1 X212.153 Y150.274 E9.23907
G1 X211.642 Y150.81 E9.2637
G1 X210.078 Y152.398 E9.33783
G1 X208.998 Y153.322 E9.3851
G1 X207.533 Y154.518 E9.448
G1 X206.902 Y154.952 E9.47348
G1 X204.853 Y156.292 E9.55491
G1 X202.829 Y157.352 E9.6309
G1 X202.034 Y157.749 E9.66045
G1 X201.411 Y158.005 E9.68286
G1 X199.882 Y158.6 E9.73743
G1 X198.987 Y158.936 E9.76922
G1 X196.81 Y159.529 E9.84427
G1 X195.923 Y159.749 E9.87466
G1 X195.376 Y159.849 E9.89316
G1 X193.664 Y160.122 E9.95082
G1 X192.729 Y160.254 E9.98222
G1 X190.547 Y160.374 E10.05491
G1 X189.733 Y160.406 E10.082
G1 X144.386 Y160.414 E11.59025
G1 X143.685 Y160.404 E11.61357
G1 X143.062 Y160.333 E11.63442
G1 X142.354 Y160.182 E11.6585
G1 X140.92 Y159.852 E11.70744
G1 X138.275 Y159.321 E11.79717
G1 X135.562 Y158.856 E11.88872
G1 X132.864 Y158.471 E11.97937
G1 X130.101 Y158.158 E12.07185
G1 X127.423 Y157.93 E12.16124
G1 X124.675 Y157.774 E12.25279
G1 X121.922 Y157.696 E12.34439
G1 X119.206 Y157.696 E12.43473
G1 X116.454 Y157.774 E12.5263
G1 X113.736 Y157.928 E12.61684
G1 X110.997 Y158.16 E12.70827
G1 X108.261 Y158.471 E12.79985
G1 X105.564 Y158.855 E12.89046
G1 X102.859 Y159.318 E12.98174
G1 X101.167 Y159.647 E13.03907
G1 X100.565 Y159.714 E13.05921
G1 X60.603 Y159.715 E14.38836
G1 X59.764 Y159.7 E14.41627
G1 X59.185 Y159.667 E14.43555
G1 X57.431 Y159.534 E14.49406
G1 X56.482 Y159.444 E14.52577
G1 X54.479 Y159.084 E14.59345
G1 X53.459 Y158.889 E14.62799
G1 X52.546 Y158.636 E14.6595
G1 X51.136 Y158.225 E14.70835
G1 X50.433 Y158.01 E14.7328
G1 X49.942 Y157.832 E14.75017
G1 X48.105 Y157.083 E14.81616
G1 X47.142 Y156.667 E14.85105
G1 X44.459 Y155.224 E14.95237
G1 X42.451 Y153.873 E15.03287
G1 X41.61 Y153.277 E15.06715
G1 X39.926 Y151.86 E15.14035
G1 X39.147 Y151.177 E15.17481
G1 X37.592 Y149.565 E15.2493
G1 X36.957 Y148.876 E15.28047
G1 X36.613 Y148.452 E15.29863
G1 X35.502 Y147.026 E15.35875
G1 X34.921 Y146.248 E15.39105
G1 X33.743 Y144.366 E15.46489
G1 X33.214 Y143.479 E15.49924
G1 X32.214 Y141.433 E15.57499
G1 X31.815 Y140.572 E15.60655
G1 X31.041 Y138.456 E15.68149
G1 X30.798 Y137.756 E15.70613
G1 X30.587 Y137.004 E15.73211
G1 X29.978 Y134.531 E15.81682
G1 X29.859 Y133.786 E15.84191
G1 X29.627 Y132.152 E15.89681
G1 X29.508 Y131.22 E15.92806
G1 X29.496 Y130.344 E15.9572
G1 X29.496 Y91.545 E17.24766
G1 X29.506 Y90.847 E17.27087
G1 X29.553 Y90.344 E17.28768
G1 X29.679 Y89.854 E17.3045
G1 X29.881 Y89.39 E17.32134
G1 X30.153 Y88.964 E17.33815
G1 X30.537 Y88.53 E17.35742
G1 X31.359 Y87.869 E17.3925
G1 X40.072 Y81.091 E17.75966
G1 X42.213 Y79.376 E17.8509
G1 X44.287 Y77.619 E17.94131
G1 X46.333 Y75.779 E18.03283
G1 X48.326 Y73.884 E18.12429
G1 X50.246 Y71.952 E18.21489
G1 X52.124 Y69.955 E18.30607
G1 X53.932 Y67.915 E18.39673
G1 X55.698 Y65.809 E18.48814
G1 X57.406 Y63.649 E18.57973
G1 X59.028 Y61.476 E18.66992
G1 X60.604 Y59.233 E18.7611
G1 X62.125 Y56.932 E18.85284
G1 X63.568 Y54.61 E18.94376
G1 X64.95 Y52.239 E19.03504
G1 X66.259 Y49.843 E19.12585
G1 X67.495 Y47.415 E19.21647
G1 X68.663 Y44.952 E19.30713
G1 X69.775 Y42.426 E19.39893
G1 X70.822 Y39.853 E19.49132
G1 X71.454 Y38.186 E19.55062
G1 X71.88 Y37.033 E19.5915
G1 X72.092 Y36.574 E19.60832
G1 F2100 E18.80832
;MESH:rPI-Arcade-LED-Logo-noback.stl 6
G0 F3600 X74.729 Y37.441
G0 X75.292 Y38.363
G0 X75.472 Y58.746
G0 X75.287 Y58.507
;TYPE:WALL-INNER
G1 F2100 E19.60832
G1 F1800 X33.296 Y91.178 E21.37788
G1 X33.296 Y130.957 E22.70093
G1 X33.694 Y133.768 E22.79536
G1 X34.391 Y136.552 E22.89081
G1 X35.362 Y139.217 E22.98515
G1 X36.614 Y141.784 E23.08015
G1 X38.129 Y144.212 E23.17533
G1 X39.883 Y146.466 E23.27033
G1 X41.855 Y148.517 E23.36496
G1 X44.043 Y150.36 E23.46011
G1 X46.399 Y151.957 E23.55477
G1 X48.916 Y153.308 E23.64979
G1 X51.567 Y154.388 E23.745
G1 X54.303 Y155.191 E23.83983
G1 X57.104 Y155.696 E23.9345
G1 X59.967 Y155.912 E24.02999
G1 X99.964 Y155.912 E25.3603
G1 X99.964 Y23.522 E29.76361
G1 X75.472 Y38.465 E30.71786
G1 X75.471 Y58.154 E31.37272
G1 X75.434 Y58.285 E31.37725
G1 X75.287 Y58.507 E31.3861
G0 F3600 X75.472 Y58.746
G0 X75.304 Y85.245
G0 X75.138 Y85.563
G1 F1800 X75.275 Y85.701 E31.39257
G1 X75.383 Y85.966 E31.40209
G1 X75.383 Y135.33 E33.04394
G1 X75.356 Y135.477 E33.04891
G1 X75.232 Y135.693 E33.0572
G1 X75.113 Y135.795 E33.06241
G1 X74.886 Y135.891 E33.07061
G1 X65.187 Y135.89 E33.3932
G1 X63.433 Y135.725 E33.45179
G1 X61.689 Y135.214 E33.51224
G1 X60.08 Y134.397 E33.57226
G1 X58.639 Y133.285 E33.6328
G1 X57.437 Y131.92 E33.69329
G1 X56.528 Y130.388 E33.75254
G1 X55.903 Y128.666 E33.81347
G1 X55.617 Y126.892 E33.87323
G1 X55.613 Y101.08 E34.73174
G1 X55.65 Y100.911 E34.7375
G1 X55.746 Y100.745 E34.74388
G1 X60.153 Y96.6 E34.9451
G1 X64.767 Y92.654 E35.14703
G1 X69.522 Y88.961 E35.34728
G1 X74.45 Y85.489 E35.54778
G1 X74.705 Y85.42 E35.55656
G1 X74.859 Y85.433 E35.56171
G1 X75.138 Y85.563 E35.57194
G0 F3600 X74.894 Y85.88
;TYPE:WALL-OUTER
G1 F1800 X74.982 Y86.013 E35.57725
G1 X74.981 Y135.33 E37.21754
G1 X74.934 Y135.426 E37.22109
G1 X74.829 Y135.488 E37.22515
G1 X65.225 Y135.492 E37.54458
G1 X63.504 Y135.328 E37.60208
G1 X61.843 Y134.845 E37.65961
G1 X60.293 Y134.058 E37.71743
G1 X58.917 Y132.997 E37.77522
G1 X57.767 Y131.694 E37.83302
G1 X56.879 Y130.193 E37.89103
G1 X56.295 Y128.581 E37.94805
G1 X56.016 Y126.86 E38.00604
G1 X56.012 Y101.109 E38.86252
G1 X56.065 Y100.987 E38.86695
G1 X60.413 Y96.904 E39.06533
G1 X65.013 Y92.97 E39.26665
G1 X69.752 Y89.288 E39.46625
G1 X74.652 Y85.832 E39.66568
G1 X74.75 Y85.82 E39.66897
G1 X74.894 Y85.88 E39.67416
G0 F3600 X74.982 Y86.013
G0 X74.982 Y86.054
G0 X75.684 Y86.054
G0 X75.433 Y58.777
G0 X75.003 Y58.224
G1 F1800 X32.896 Y90.982 E41.44854
G1 X32.896 Y130.985 E42.77905
G1 X33.301 Y133.845 E42.87512
G1 X34.008 Y136.669 E42.97195
G1 X34.993 Y139.373 E43.06766
G1 X36.264 Y141.978 E43.16407
G1 X37.801 Y144.441 E43.26063
G1 X39.58 Y146.728 E43.357
G1 X41.581 Y148.809 E43.45302
G1 X43.801 Y150.68 E43.54958
G1 X46.192 Y152.3 E43.64564
G1 X48.746 Y153.67 E43.74204
G1 X51.435 Y154.766 E43.83862
G1 X54.211 Y155.581 E43.93485
G1 X57.054 Y156.093 E44.03093
G1 X59.952 Y156.312 E44.12759
G1 X100.364 Y156.312 E45.4717
G1 X100.364 Y22.809 E49.91202
G1 X75.072 Y38.241 E50.89746
G1 X75.067 Y58.121 E51.55868
G1 X75.003 Y58.224 E51.56271
G0 F3600 X74.846 Y58.346
G0 X75.276 Y58.899
G0 X75.618 Y85.482
G0 X75.612 Y136.122
G0 X75.251 Y136.153
;TYPE:SKIN
G1 F1800 X75.605 Y135.826 E51.57874
G1 X75.757 Y135.472 E51.59155
G1 X75.755 Y85.951 E53.23863
G1 X75.627 Y85.549 E53.25266
G1 X75.44 Y85.32 E53.26249
G1 X75.13 Y85.126 E53.27465
G1 X74.656 Y85.043 E53.29066
G1 X74.232 Y85.172 E53.3054
G1 X69.3 Y88.652 E53.50616
G1 X64.501 Y92.378 E53.70824
G1 X59.869 Y96.34 E53.91097
G1 X55.426 Y100.523 E54.11393
G1 X55.269 Y100.847 E54.12591
G1 X55.232 Y101.054 E54.1329
G1 X55.236 Y126.925 E54.99337
G1 X55.534 Y128.756 E55.05508
G1 X56.184 Y130.558 E55.11879
G1 X57.119 Y132.13 E55.17962
G1 X58.361 Y133.545 E55.24225
G1 X59.873 Y134.718 E55.30589
G1 X61.558 Y135.571 E55.36871
G1 X63.364 Y136.093 E55.43124
G1 X65.152 Y136.268 E55.49099
G1 X74.927 Y136.268 E55.81611
G1 X75.251 Y136.153 E55.82754
G0 F3600 X75.251 Y136.194
G0 X75.709 Y58.577
G1 F1800 X75.842 Y58.203 E55.84074
G1 X75.852 Y38.677 E56.49018
G1 X99.584 Y24.195 E57.41487
G1 X99.584 Y155.532 E61.78316
G1 X59.984 Y155.531 E63.10026
G1 X57.146 Y155.317 E63.19492
G1 X54.391 Y154.821 E63.28802
G1 X51.695 Y154.026 E63.38151
G1 X49.074 Y152.958 E63.47564
G1 X46.592 Y151.628 E63.5693
G1 X44.269 Y150.052 E63.66267
G1 X42.109 Y148.237 E63.75651
G1 X40.152 Y146.193 E63.85062
G1 X38.437 Y143.989 E63.94351
G1 X36.944 Y141.594 E64.03738
G1 X35.709 Y139.061 E64.1311
G1 X34.756 Y136.441 E64.22383
G1 X34.065 Y133.689 E64.31821
G1 X33.676 Y130.922 E64.41114
G1 X33.676 Y91.366 E65.72678
G1 X75.528 Y58.8 E67.49055
G1 X75.709 Y58.577 E67.5001
G0 F3600 X99.283 Y24.613
G1 F1800 X99.384 Y24.713 E67.50483
G0 F3600 X98.932 Y24.827
G1 F1800 X99.384 Y25.279 E67.52609
G0 F3600 X99.384 Y25.845
G1 F1800 X98.581 Y25.041 E67.56388
G0 F3600 X98.229 Y25.256
G1 F1800 X99.384 Y26.41 E67.61819
G0 F3600 X99.384 Y26.976
G1 F1800 X97.878 Y25.47 E67.68903
G0 F3600 X97.527 Y25.685
G1 F1800 X99.384 Y27.542 E67.77637
G0 F3600 X99.384 Y28.107
G1 F1800 X97.176 Y25.899 E67.88023
G0 F3600 X96.824 Y26.113
G1 F1800 X99.384 Y28.673 E68.00065
G0 F3600 X99.384 Y29.239
G1 F1800 X96.473 Y26.328 E68.13757
G0 F3600 X96.121 Y26.542
G1 F1800 X99.384 Y29.805 E68.29105
G0 F3600 X99.384 Y30.37
G1 F1800 X95.771 Y26.757 E68.461
G0 F3600 X95.419 Y26.971
G1 F1800 X99.384 Y30.936 E68.6475
G0 F3600 X99.384 Y31.502
G1 F1800 X95.068 Y27.185 E68.85053
G0 F3600 X94.716 Y27.4
G1 F1800 X99.384 Y32.067 E69.07008
G0 F3600 X99.384 Y32.633
G1 F1800 X94.365 Y27.614 E69.30616
G0 F3600 X94.013 Y27.828
G1 F1800 X99.384 Y33.199 E69.55879
G0 F3600 X99.384 Y33.764
G1 F1800 X93.663 Y28.043 E69.82789
G0 F3600 X93.311 Y28.257
G1 F1800 X99.384 Y34.33 E70.11354
G0 F3600 X99.384 Y34.896
G1 F1800 X92.96 Y28.472 E70.41571
G0 F3600 X92.608 Y28.686
G1 F1800 X99.384 Y35.461 E70.73441
G0 F3600 X99.384 Y36.027
G1 F1800 X92.257 Y28.9 E71.06964
G0 F3600 X91.906 Y29.115
G1 F1800 X99.384 Y36.593 E71.42138
G0 F3600 X99.384 Y37.158
G1 F1800 X91.555 Y29.329 E71.78964
G0 F3600 X91.203 Y29.544
G1 F1800 X99.384 Y37.724 E72.17442
G0 F3600 X99.384 Y38.29
G1 F1800 X90.852 Y29.758 E72.57574
G0 F3600 X90.5 Y29.972
G1 F1800 X99.384 Y38.856 E72.99362
G0 F3600 X99.384 Y39.421
G1 F1800 X90.149 Y30.186 E73.428
G0 F3600 X89.798 Y30.401
G1 F1800 X99.384 Y39.987 E73.8789
G0 F3600 X99.384 Y40.553
G1 F1800 X89.447 Y30.616 E74.3463
G0 F3600 X89.095 Y30.83
G1 F1800 X99.384 Y41.118 E74.83024
G0 F3600 X99.384 Y41.684
G1 F1800 X88.744 Y31.044 E75.33072
G0 F3600 X88.393 Y31.258
G1 F1800 X99.384 Y42.25 E75.84772
G0 F3600 X99.384 Y42.815
G1 F1800 X88.042 Y31.473 E76.38122
G0 F3600 X87.69 Y31.688
G1 F1800 X99.384 Y43.381 E76.93124
G0 F3600 X99.384 Y43.947
G1 F1800 X87.339 Y31.902 E77.4978
G0 F3600 X86.988 Y32.116
G1 F1800 X99.384 Y44.512 E78.08087
G0 F3600 X99.384 Y45.078
G1 F1800 X86.636 Y32.33 E78.6805
G0 F3600 X86.285 Y32.545
G1 F1800 X99.384 Y45.644 E79.29664
G0 F3600 X99.384 Y46.209
G1 F1800 X85.934 Y32.76 E79.92926
G0 F3600 X85.583 Y32.974
G1 F1800 X99.384 Y46.775 E80.57842
G0 F3600 X99.384 Y47.341
G1 F1800 X85.231 Y33.188 E81.24413
G0 F3600 X84.88 Y33.402
G1 F1800 X99.384 Y47.906 E81.92635
G0 F3600 X99.384 Y48.472
G1 F1800 X84.528 Y33.617 E82.62511
G0 F3600 X84.178 Y33.832
G1 F1800 X99.384 Y49.038 E83.34035
G0 F3600 X99.384 Y49.604
G1 F1800 X83.826 Y34.046 E84.07215
G0 F3600 X83.475 Y34.26
G1 F1800 X99.384 Y50.169 E84.82047
G0 F3600 X99.384 Y50.735
G1 F1800 X83.123 Y34.474 E85.58533
G0 F3600 X82.772 Y34.689
G1 F1800 X99.384 Y51.301 E86.36671
G0 F3600 X99.384 Y51.866
G1 F1800 X82.421 Y34.903 E87.1646
G0 F3600 X82.07 Y35.118
G1 F1800 X99.384 Y52.432 E87.979
G0 F3600 X99.384 Y52.998
G1 F1800 X81.718 Y35.332 E88.80995
G0 F3600 X81.367 Y35.546
G1 F1800 X99.384 Y53.563 E89.65741
G0 F3600 X99.384 Y54.129
G1 F1800 X81.015 Y35.761 E90.52141
G0 F3600 X80.664 Y35.975
G1 F1800 X99.384 Y54.695 E91.40194
G0 F3600 X99.384 Y55.26
G1 F1800 X80.313 Y36.19 E92.29896
G0 F3600 X79.962 Y36.404
G1 F1800 X99.384 Y55.826 E93.21251
G0 F3600 X99.384 Y56.392
G1 F1800 X79.61 Y36.618 E94.14262
G0 F3600 X79.259 Y36.832
G1 F1800 X99.384 Y56.957 E95.08924
G0 F3600 X99.384 Y57.523
G1 F1800 X78.907 Y37.047 E96.05239
G0 F3600 X78.557 Y37.262
G1 F1800 X99.384 Y58.089 E97.03203
G0 F3600 X99.384 Y58.655
G1 F1800 X78.205 Y37.476 E98.02822
G0 F3600 X77.854 Y37.69
G1 F1800 X99.384 Y59.22 E99.04093
G0 F3600 X99.384 Y59.786
G1 F1800 X77.502 Y37.904 E100.07019
G0 F3600 X77.151 Y38.119
G1 F1800 X99.384 Y60.352 E101.11596
G0 F3600 X99.384 Y60.917
