;FLAVOR:Marlin
;TIME:17840
;Filament used: 45.7831m
;Layer height: 0.4
;MINX:55.428
;MINY:12.365
;MINZ:0.2
;MAXX:209.849
;MAXY:190.585
;MAXZ:79.4
;TARGET_MACHINE.NAME:Prusa i3 Mk3/Mk3s
;Generated with Cura_SteamEngine 5.8.1
M82 ;absolute extrusion mode
G21 ; set units to millimeters
G90 ; use absolute positioning
M82 ; absolute extrusion mode
M104 S200 ; set extruder temp
M140 S60 ; set bed temp
M190 S60 ; wait for bed temp
M109 S200 ; wait for extruder temp
G28 W ; home all without mesh bed level
G80 ; mesh bed leveling
G92 E0.0 ; reset extruder distance position
G1 Y-3.0 F1000.0 ; go outside print area
G1 X60.0 E9.0 F1000.0 ; intro line
G1 X100.0 E21.5 F1000.0 ; intro line
G92 E0.0 ; reset extruder distance position
G92 E0
G92 E0
G1 F2100 E-0.8
;LAYER_COUNT:199
;LAYER:0
M107
G0 F3600 X55.505 Y14.838 Z0.2
;TYPE:SKIRT
G1 F2100 E0
G1 F1800 X55.659 Y14.357 E0.0168
G1 X55.888 Y13.906 E0.03362
G1 X56.185 Y13.497 E0.05043
G1 X56.542 Y13.139 E0.06725
G1 X56.952 Y12.843 E0.08407
G1 X57.403 Y12.614 E0.10089
G1 X57.884 Y12.46 E0.11769
G1 X58.587 Y12.367 E0.14127
G1 X114.295 Y12.365 E1.99413
G1 X115.247 Y12.38 E2.0258
G1 X118.145 Y12.875 E2.12358
G1 X120.878 Y13.265 E2.2154
G1 X123.583 Y13.573 E2.30595
G1 X126.292 Y13.803 E2.39638
G1 X129.039 Y13.959 E2.48789
G1 X131.793 Y14.038 E2.57953
G1 X134.51 Y14.038 E2.6699
G1 X137.261 Y13.961 E2.76143
G1 X139.978 Y13.807 E2.85194
G1 X142.718 Y13.575 E2.9434
G1 X145.454 Y13.264 E3.03499
G1 X148.143 Y12.881 E3.12533
G1 X150.901 Y12.418 E3.21834
G1 X151.433 Y12.366 E3.23612
G1 X205.983 Y12.365 E5.05046
G1 X206.681 Y12.374 E5.07368
G1 X207.185 Y12.421 E5.09051
G1 X207.675 Y12.546 E5.10733
G1 X208.139 Y12.747 E5.12415
G1 X208.565 Y13.018 E5.14094
G1 X208.944 Y13.353 E5.15777
G1 X209.265 Y13.744 E5.17459
G1 X209.52 Y14.18 E5.19139
G1 X209.704 Y14.651 E5.20821
G1 X209.811 Y15.145 E5.22502
G1 X209.848 Y15.805 E5.24701
G1 X209.849 Y79.846 E7.37702
G1 X209.839 Y80.576 E7.4013
G1 X209.792 Y81.079 E7.41811
G1 X209.666 Y81.569 E7.43493
G1 X209.465 Y82.033 E7.45175
G1 X209.194 Y82.459 E7.46855
G1 X208.783 Y82.921 E7.48911
G1 X207.971 Y83.54 E7.52307
G1 X64.31 Y189.601 E13.46235
G1 X63.771 Y189.987 E13.4844
G1 X63.338 Y190.248 E13.50122
G1 X62.869 Y190.437 E13.51803
G1 X62.377 Y190.55 E13.53482
G1 X61.872 Y190.585 E13.55166
G1 X61.369 Y190.539 E13.56846
G1 X60.879 Y190.415 E13.58527
G1 X60.414 Y190.215 E13.60211
G1 X59.987 Y189.944 E13.61893
G1 X59.608 Y189.61 E13.63573
G1 X59.286 Y189.22 E13.65255
G1 X59.03 Y188.784 E13.66937
G1 X58.846 Y188.314 E13.68616
G1 X58.712 Y187.7 E13.70706
G1 X58.698 Y186.717 E13.73976
G1 X58.698 Y143.444 E15.17902
G1 X58.708 Y142.74 E15.20244
G1 X58.755 Y142.236 E15.21928
G1 X58.881 Y141.747 E15.23607
G1 X59.116 Y141.222 E15.2552
G1 X60.649 Y138.483 E15.3596
G1 X61.92 Y136.046 E15.45102
G1 X63.11 Y133.596 E15.54161
G1 X64.227 Y131.12 E15.63195
G1 X65.294 Y128.566 E15.72401
G1 X66.29 Y125.977 E15.81628
G1 X67.19 Y123.424 E15.90631
G1 X68.02 Y120.836 E15.99671
G1 X68.792 Y118.181 E16.08867
G1 X69.476 Y115.543 E16.17931
G1 X70.086 Y112.893 E16.26976
G1 X70.631 Y110.166 E16.36225
G1 X71.09 Y107.486 E16.45268
G1 X71.469 Y104.811 E16.54254
G1 X71.781 Y102.063 E16.63453
G1 X72.013 Y99.322 E16.72602
G1 X72.165 Y96.611 E16.81633
G1 X72.242 Y93.856 E16.908
G1 X72.242 Y91.138 E16.9984
G1 X72.163 Y88.385 E17.09
G1 X72.007 Y85.639 E17.18148
G1 X71.774 Y82.924 E17.27212
G1 X71.467 Y80.228 E17.36236
G1 X71.078 Y77.504 E17.45388
G1 X70.615 Y74.806 E17.54493
G1 X70.076 Y72.118 E17.63612
G1 X69.458 Y69.438 E17.72759
G1 X69.066 Y67.9 E17.78038
G1 X55.689 Y17.055 E19.52904
G1 X55.513 Y16.342 E19.55347
G1 X55.43 Y15.844 E19.57026
G1 X55.428 Y15.338 E19.58709
G1 X55.505 Y14.838 E19.60392
G1 F2100 E18.80392
;MESH:rPI-Arcade-LED-Logo-splitR v2.stl 1
G0 F3600 X58.1 Y16.251
G0 X59.14 Y15.977
G0 X133.553 Y86.794
G0 X133.233 Y86.346
;TYPE:WALL-INNER
G1 F2100 E19.60392
G1 F1800 X133.038 Y86.237 E19.61135
G1 X132.874 Y86.046 E19.61972
G1 X114.485 Y16.164 E22.02313
G1 X59.383 Y16.164 E23.85583
G1 X87.001 Y121.124 E27.46564
G1 X87.012 Y121.275 E27.47068
G1 X86.963 Y121.484 E27.47782
G1 X86.861 Y121.644 E27.48413
G1 X62.496 Y143.052 E28.56288
G1 X62.496 Y186.214 E29.99846
G1 X206.048 Y80.233 E35.93324
G1 X206.048 Y16.164 E38.06418
G1 X152.02 Y16.164 E39.86116
G1 X152.019 Y72.924 E41.74901
G1 X151.934 Y73.195 E41.75845
G1 X151.828 Y73.331 E41.76419
G1 X133.702 Y86.315 E42.50577
G1 X133.508 Y86.371 E42.51249
G1 X133.233 Y86.346 E42.52167
G0 F3600 X133.348 Y85.962
;TYPE:WALL-OUTER
G1 F1800 X133.239 Y85.855 E42.52675
G1 X114.793 Y15.764 E44.93737
G1 X58.864 Y15.764 E46.79758
G1 X86.611 Y121.215 E50.42427
G1 X86.562 Y121.378 E50.42994
G1 X62.096 Y142.871 E51.51308
G1 X62.096 Y187.006 E52.98102
G1 X206.448 Y80.435 E58.94886
G1 X206.448 Y15.764 E61.09983
G1 X151.62 Y15.764 E62.92341
G1 X151.618 Y72.918 E64.82436
G1 X151.544 Y73.042 E64.82916
G1 X133.52 Y85.952 E65.56656
G1 X133.348 Y85.962 E65.57229
G0 F3600 X133.239 Y85.855
G0 X133.228 Y85.81
G0 X133.37 Y86.752
;TYPE:SKIN
G1 F1800 X133.641 Y86.731 E65.58133
G1 X133.918 Y86.624 E65.59121
G1 X152.084 Y73.608 E66.33449
G1 X152.267 Y73.371 E66.34445
G1 X152.393 Y72.969 E66.35847
G1 X152.4 Y16.544 E68.23517
G1 X205.668 Y16.544 E70.00687
G1 X205.668 Y80.039 E72.11872
G1 X62.877 Y185.457 E78.02202
G1 X62.876 Y143.223 E79.42673
G1 X87.11 Y121.927 E80.49975
G1 X87.327 Y121.59 E80.51308
G1 X87.395 Y121.136 E80.52835
G1 X59.876 Y16.544 E84.12549
G1 X114.189 Y16.544 E85.93195
G1 X132.493 Y86.095 E88.32399
G1 X132.763 Y86.502 E88.34024
G1 X133.014 Y86.667 E88.35023
G1 X133.37 Y86.752 E88.3624
G0 F3600 X133.451 Y86.867
G0 X152.255 Y73.315
G0 X205.118 Y16.744
G1 F1800 X205.468 Y17.095 E88.37889
G0 F3600 X205.468 Y17.661
G1 F1800 X204.552 Y16.744 E88.42199
G0 F3600 X203.986 Y16.744
G1 F1800 X205.468 Y18.226 E88.4917
G0 F3600 X205.468 Y18.792
G1 F1800 X203.42 Y16.744 E88.58804
G0 F3600 X202.855 Y16.744
G1 F1800 X205.468 Y19.358 E88.71097
G0 F3600 X205.468 Y19.923
G1 F1800 X202.289 Y16.744 E88.8605
G0 F3600 X201.723 Y16.744
G1 F1800 X205.468 Y20.489 E89.03665
G0 F3600 X205.468 Y21.055
G1 F1800 X201.158 Y16.744 E89.2394
G0 F3600 X200.592 Y16.744
G1 F1800 X205.468 Y21.62 E89.46875
G0 F3600 X205.468 Y22.186
G1 F1800 X200.026 Y16.744 E89.72473
G0 F3600 X199.461 Y16.744
G1 F1800 X205.468 Y22.752 E90.0073
G0 F3600 X205.468 Y23.318
G1 F1800 X198.895 Y16.744 E90.3165
G0 F3600 X198.329 Y16.744
G1 F1800 X205.468 Y23.883 E90.6523
G0 F3600 X205.468 Y24.449
G1 F1800 X197.764 Y16.744 E91.01469
G0 F3600 X197.198 Y16.744
G1 F1800 X205.468 Y25.015 E91.40371
G0 F3600 X205.468 Y25.58
G1 F1800 X196.632 Y16.744 E91.81933
G0 F3600 X196.067 Y16.744
G1 F1800 X205.468 Y26.146 E92.26155
G0 F3600 X205.468 Y26.712
G1 F1800 X195.501 Y16.744 E92.73039
G0 F3600 X194.935 Y16.744
G1 F1800 X205.468 Y27.277 E93.22583
G0 F3600 X205.468 Y27.843
G1 F1800 X194.37 Y16.744 E93.74787
G0 F3600 X193.804 Y16.744
G1 F1800 X205.468 Y28.409 E94.29653
G0 F3600 X205.468 Y28.974
G1 F1800 X193.238 Y16.744 E94.87179
G0 F3600 X192.672 Y16.744
G1 F1800 X205.468 Y29.54 E95.47368
G0 F3600 X205.468 Y30.106
G1 F1800 X192.107 Y16.744 E96.10216
G0 F3600 X191.541 Y16.744
G1 F1800 X205.468 Y30.671 E96.75725
G0 F3600 X205.468 Y31.237
G1 F1800 X190.975 Y16.744 E97.43895
G0 F3600 X190.41 Y16.744
G1 F1800 X205.468 Y31.803 E98.14726
G0 F3600 X205.468 Y32.369
G1 F1800 X189.844 Y16.744 E98.88219
G0 F3600 X189.278 Y16.744
G1 F1800 X205.468 Y32.934 E99.64371
G0 F3600 X205.468 Y33.5
G1 F1800 X188.713 Y16.744 E100.43184
G0 F3600 X188.147 Y16.744
G1 F1800 X205.468 Y34.066 E101.24659
G0 F3600 X205.468 Y34.631
G1 F1800 X187.581 Y16.744 E102.08794
G0 F3600 X187.016 Y16.744
G1 F1800 X205.468 Y35.197 E102.95589
G0 F3600 X205.468 Y35.763
G1 F1800 X186.45 Y16.744 E103.85046
G0 F3600 X185.884 Y16.744
G1 F1800 X205.468 Y36.328 E104.77163
G0 F3600 X205.468 Y36.894
G1 F1800 X185.319 Y16.744 E105.7194
G0 F3600 X184.753 Y16.744
G1 F1800 X205.468 Y37.46 E106.6938
G0 F3600 X205.468 Y38.025
G1 F1800 X184.187 Y16.744 E107.69479
G0 F3600 X183.621 Y16.744
G1 F1800 X205.468 Y38.591 E108.72241
G0 F3600 X205.468 Y39.157
G1 F1800 X183.056 Y16.744 E109.77662
G0 F3600 X182.49 Y16.744
G1 F1800 X205.468 Y39.722 E110.85744
G0 F3600 X205.468 Y40.288
G1 F1800 X181.924 Y16.744 E111.96487
G0 F3600 X181.359 Y16.744
G1 F1800 X205.468 Y40.854 E113.09891
G0 F3600 X205.468 Y41.419
G1 F1800 X180.793 Y16.744 E114.25955
G0 F3600 X180.227 Y16.744
G1 F1800 X205.468 Y41.985 E115.44681
G0 F3600 X205.468 Y42.551
G1 F1800 X179.662 Y16.744 E116.66067
G0 F3600 X179.096 Y16.744
G1 F1800 X205.468 Y43.117 E117.90115
G0 F3600 X205.468 Y43.682
G1 F1800 X178.53 Y16.744 E119.16823
G0 F3600 X177.965 Y16.744
G1 F1800 X205.468 Y44.248 E120.46191
G0 F3600 X205.468 Y44.814
G1 F1800 X177.399 Y16.744 E121.78221
G0 F3600 X176.833 Y16.744
G1 F1800 X205.468 Y45.379 E123.12911
G0 F3600 X205.468 Y45.945
G1 F1800 X176.268 Y16.744 E124.50262
G0 F3600 X175.702 Y16.744
G1 F1800 X205.468 Y46.511 E125.90274
G0 F3600 X205.468 Y47.076
G1 F1800 X175.136 Y16.744 E127.32947
G0 F3600 X174.571 Y16.744
G1 F1800 X205.468 Y47.642 E128.78279
G0 F3600 X205.468 Y48.208
G1 F1800 X174.005 Y16.744 E130.26274
G0 F3600 X173.439 Y16.744
G1 F1800 X205.468 Y48.773 E131.76928
G0 F3600 X205.468 Y49.339
G1 F1800 X172.873 Y16.744 E133.30245
G0 F3600 X172.308 Y16.744
G1 F1800 X205.468 Y49.905 E134.86222
G0 F3600 X205.468 Y50.47
G1 F1800 X171.742 Y16.744 E136.44859
G0 F3600 X171.176 Y16.744
G1 F1800 X205.468 Y51.036 E138.06158
G0 F3600 X205.468 Y51.602
G1 F1800 X170.611 Y16.744 E139.70117
G0 F3600 X170.045 Y16.744
G1 F1800 X205.468 Y52.168 E141.36738
G0 F3600 X205.468 Y52.733
G1 F1800 X169.479 Y16.744 E143.06019
G0 F3600 X168.914 Y16.744
G1 F1800 X205.468 Y53.299 E144.7796
G0 F3600 X205.468 Y53.865
G1 F1800 X168.348 Y16.744 E146.52564
G0 F3600 X167.782 Y16.744
G1 F1800 X205.468 Y54.43 E148.29827
G0 F3600 X205.468 Y54.996
G1 F1800 X167.217 Y16.744 E150.0975
G0 F3600 X166.651 Y16.744
G1 F1800 X205.468 Y55.562 E151.92336
G0 F3600 X205.468 Y56.127
G1 F1800 X166.085 Y16.744 E153.77582
G0 F3600 X165.52 Y16.744
G1 F1800 X205.468 Y56.693 E155.65487
G0 F3600 X205.468 Y57.259
G1 F1800 X164.954 Y16.744 E157.56055
G0 F3600 X164.388 Y16.744
G1 F1800 X205.468 Y57.824 E159.49283
G0 F3600 X205.468 Y58.39
G1 F1800 X163.822 Y16.744 E161.45173
G0 F3600 X163.257 Y16.744
G1 F1800 X205.468 Y58.956 E163.43723
G0 F3600 X205.468 Y59.521
G1 F1800 X162.691 Y16.744 E165.44933
G0 F3600 X162.125 Y16.744
G1 F1800 X205.468 Y60.087 E167.48805
G0 F3600 X205.468 Y60.653
G1 F1800 X161.56 Y16.744 E169.55337
G0 F3600 X160.994 Y16.744
G1 F1800 X205.468 Y61.218 E171.64529
G0 F3600 X205.468 Y61.784
G1 F1800 X160.428 Y16.744 E173.76383
G0 F3600 X159.863 Y16.744
G1 F1800 X205.468 Y62.35 E175.90898
G0 F3600 X205.468 Y62.916
G1 F1800 X159.297 Y16.744 E178.08074
G0 F3600 X158.731 Y16.744
G1 F1800 X205.468 Y63.481 E180.27911
G0 F3600 X205.468 Y64.047
G1 F1800 X158.166 Y16.744 E182.50407
G0 F3600 X157.6 Y16.744
G1 F1800 X205.468 Y64.613 E184.75566
G0 F3600 X205.468 Y65.178
G1 F1800 X157.034 Y16.744 E187.03385
G0 F3600 X156.469 Y16.744
G1 F1800 X205.468 Y65.744 E189.33863
G0 F3600 X205.468 Y66.31
G1 F1800 X155.903 Y16.744 E191.67004
G0 F3600 X155.337 Y16.744
G1 F1800 X205.468 Y66.875 E194.02805
G0 F3600 X205.468 Y67.441
G1 F1800 X154.772 Y16.744 E196.41266
G0 F3600 X154.206 Y16.744
G1 F1800 X205.468 Y68.007 E198.82389
G0 F3600 X205.468 Y68.572
G1 F1800 X153.64 Y16.744 E201.26172
G0 F3600 X153.074 Y16.744
G1 F1800 X205.468 Y69.138 E203.72617
G0 F3600 X205.468 Y69.704
G1 F1800 X152.599 Y16.835 E206.21297
G0 F3600 X152.599 Y17.4
G1 F1800 X205.468 Y70.269 E208.69976
G0 F3600 X205.468 Y70.835
G1 F1800 X152.599 Y17.966 E211.18656
G0 F3600 X152.599 Y18.532
G1 F1800 X205.468 Y71.401 E213.67335
G0 F3600 X205.468 Y71.966
G1 F1800 X152.599 Y19.098 E216.16013
G0 F3600 X152.599 Y19.663
G1 F1800 X205.468 Y72.532 E218.64692
G0 F3600 X205.468 Y73.098
G1 F1800 X152.599 Y20.229 E221.13372
G0 F3600 X152.599 Y20.795
G1 F1800 X205.468 Y73.664 E223.62051
G0 F3600 X205.468 Y74.229
G1 F1800 X152.599 Y21.36 E226.10731
G0 F3600 X152.599 Y21.926
G1 F1800 X205.468 Y74.795 E228.5941
G0 F3600 X205.468 Y75.361
G1 F1800 X152.599 Y22.492 E231.0809
G0 F3600 X152.599 Y23.057
G1 F1800 X205.468 Y75.926 E233.5677
G0 F3600 X205.468 Y76.492
G1 F1800 X152.599 Y23.622 E236.05452
G0 F3600 X152.599 Y24.188
G1 F1800 X205.468 Y77.058 E238.54133
G0 F3600 X205.468 Y77.623
G1 F1800 X152.599 Y24.754 E241.02813
G0 F3600 X152.599 Y25.319
G1 F1800 X205.468 Y78.189 E243.51495
G0 F3600 X205.468 Y78.755
G1 F1800 X152.599 Y25.885 E246.00177
G0 F3600 X152.599 Y26.451
G1 F1800 X205.468 Y79.32 E248.48856
G0 F3600 X205.468 Y79.886
G1 F1800 X152.599 Y27.016 E250.97538
G0 F3600 X152.599 Y27.582
G1 F1800 X205.173 Y80.156 E253.4483
G0 F3600 X204.847 Y80.397
G1 F1800 X152.599 Y28.148 E255.90591
G0 F3600 X152.599 Y28.713
G1 F1800 X204.521 Y80.636 E258.34819
G0 F3600 X204.196 Y80.877
G1 F1800 X152.598 Y29.278 E260.77522
G0 F3600 X152.598 Y29.844
G1 F1800 X203.871 Y81.117 E263.18695
G0 F3600 X203.546 Y81.358
G1 F1800 X152.598 Y30.41 E265.58339
G0 F3600 X152.598 Y30.976
G1 F1800 X203.22 Y81.597 E267.96447
G0 F3600 X202.894 Y81.838
G1 F1800 X152.598 Y31.541 E270.33026
G0 F3600 X152.598 Y32.107
G1 F1800 X202.569 Y82.078 E272.68074
G0 F3600 X202.244 Y82.319
G1 F1800 X152.598 Y32.673 E275.01594
G0 F3600 X152.598 Y33.238
G1 F1800 X201.919 Y82.559 E277.33585
G0 F3600 X201.593 Y82.799
G1 F1800 X152.598 Y33.804 E279.64042
G0 F3600 X152.598 Y34.37
G1 F1800 X201.267 Y83.039 E281.92966
G0 F3600 X200.942 Y83.28
G1 F1800 X152.598 Y34.935 E284.20364
G0 F3600 X152.597 Y35.5
G1 F1800 X200.617 Y83.52 E286.46235
G0 F3600 X200.291 Y83.76
G1 F1800 X152.597 Y36.066 E288.70573
G0 F3600 X152.597 Y36.632
G1 F1800 X199.966 Y84 E290.9338
G0 F3600 X199.64 Y84.24
G1 F1800 X152.597 Y37.197 E293.14656
G0 F3600 X152.597 Y37.763
G1 F1800 X199.315 Y84.481 E295.34403
G0 F3600 X198.989 Y84.721
G1 F1800 X152.597 Y38.329 E297.52617
G0 F3600 X152.597 Y38.894
G1 F1800 X198.664 Y84.961 E299.69302
G0 F3600 X198.339 Y85.201
G1 F1800 X152.597 Y39.46 E301.84456
G0 F3600 X152.597 Y40.026
G1 F1800 X198.013 Y85.442 E303.98079
G0 F3600 X197.688 Y85.682
G1 F1800 X152.597 Y40.591 E306.10173
G0 F3600 X152.597 Y41.157
G1 F1800 X197.362 Y85.922 E308.20734
G0 F3600 X197.037 Y86.162
G1 F1800 X152.597 Y41.723 E310.29764
G0 F3600 X152.596 Y42.288
G1 F1800 X196.711 Y86.403 E312.37267
G0 F3600 X196.386 Y86.643
G1 F1800 X152.596 Y42.853 E314.43242
G0 F3600 X152.596 Y43.419
G1 F1800 X196.06 Y86.883 E316.47683
G0 F3600 X195.735 Y87.123
G1 F1800 X152.596 Y43.985 E318.50593
G0 F3600 X152.596 Y44.551
G1 F1800 X195.41 Y87.364 E320.51975
G0 F3600 X195.084 Y87.604
G1 F1800 X152.596 Y45.116 E322.51825
G0 F3600 X152.596 Y45.682
G1 F1800 X194.759 Y87.845 E324.50147
G0 F3600 X194.433 Y88.084
G1 F1800 X152.596 Y46.248 E326.46933
G0 F3600 X152.596 Y46.813
G1 F1800 X194.108 Y88.325 E328.42193
G0 F3600 X193.783 Y88.565
G1 F1800 X152.596 Y47.379 E330.35922
G0 F3600 X152.596 Y47.945
G1 F1800 X193.457 Y88.806 E332.28119
G0 F3600 X193.131 Y89.045
G1 F1800 X152.596 Y48.51 E334.18784
G0 F3600 X152.596 Y49.075
G1 F1800 X192.806 Y89.286 E336.07921
G0 F3600 X192.481 Y89.526
G1 F1800 X152.596 Y49.641 E337.95528
G0 F3600 X152.596 Y50.207
G1 F1800 X192.156 Y89.766 E339.81604
G0 F3600 X191.83 Y90.006
G1 F1800 X152.596 Y50.772 E341.66149
G0 F3600 X152.596 Y51.338
G1 F1800 X191.504 Y90.247 E343.49162
G0 F3600 X191.179 Y90.487
G1 F1800 X152.596 Y51.904 E345.30645
G0 F3600 X152.596 Y52.469
G1 F1800 X190.854 Y90.727 E347.10599
G0 F3600 X190.529 Y90.968
G1 F1800 X152.596 Y53.035 E348.89024
G0 F3600 X152.596 Y53.601
