;FLAVOR:Marlin
;TIME:22357
;Filament used: 56.2627m
;Layer height: 0.4
;MINX:28.136
;MINY:24.295
;MINZ:0.2
;MAXX:238.722
;MAXY:205.588
;MAXZ:79.4
;TARGET_MACHINE.NAME:Prusa i3 Mk3/Mk3s
;Generated with Cura_SteamEngine 5.8.1
M82 ;absolute extrusion mode
G21 ; set units to millimeters
G90 ; use absolute positioning
M82 ; absolute extrusion mode
M104 S200 ; set extruder temp
M140 S60 ; set bed temp
M190 S60 ; wait for bed temp
M109 S200 ; wait for extruder temp
G28 W ; home all without mesh bed level
G80 ; mesh bed leveling
G92 E0.0 ; reset extruder distance position
G1 Y-3.0 F1000.0 ; go outside print area
G1 X60.0 E9.0 F1000.0 ; intro line
G1 X100.0 E21.5 F1000.0 ; intro line
G92 E0.0 ; reset extruder distance position
G92 E0
G92 E0
G1 F2100 E-0.8
;LAYER_COUNT:199
;LAYER:0
M107
G0 F3600 X54.304 Y45.613 Z0.2
;TYPE:SKIRT
G1 F2100 E0
G1 F1800 X54.657 Y45.251 E0.01682
G1 X55.063 Y44.95 E0.03363
G1 X55.511 Y44.716 E0.05044
G1 X56.099 Y44.52 E0.07105
G1 X57.172 Y44.383 E0.10703
G1 X234.5 Y24.376 E6.0424
G1 X235.213 Y24.305 E6.06624
G1 X235.718 Y24.295 E6.08304
G1 X236.219 Y24.364 E6.09986
G1 X236.703 Y24.512 E6.11669
G1 X237.157 Y24.733 E6.13348
G1 X237.571 Y25.024 E6.15031
G1 X237.933 Y25.376 E6.16711
G1 X238.236 Y25.781 E6.18393
G1 X238.471 Y26.229 E6.20076
G1 X238.633 Y26.708 E6.21758
G1 X238.717 Y27.206 E6.23437
G1 X238.722 Y27.712 E6.2512
G1 X238.647 Y28.212 E6.26802
G1 X238.46 Y28.806 E6.28873
G1 X237.943 Y29.731 E6.32398
G1 X137.698 Y203.36 E12.99229
G1 X137.3 Y204.03 E13.01821
G1 X137.008 Y204.443 E13.03503
G1 X136.655 Y204.805 E13.05185
G1 X136.25 Y205.107 E13.06865
G1 X135.801 Y205.341 E13.08549
G1 X135.322 Y205.501 E13.10229
G1 X134.823 Y205.584 E13.11911
G1 X134.318 Y205.588 E13.13591
G1 X133.818 Y205.511 E13.15274
G1 X133.336 Y205.357 E13.16957
G1 X132.768 Y205.073 E13.19069
G1 X57.618 Y161.686 E16.07685
G1 X56.934 Y161.271 E16.10346
G1 X55.925 Y160.58 E16.14413
G1 X54.635 Y159.658 E16.19687
G1 X53.92 Y159.135 E16.22633
G1 X53.029 Y158.443 E16.26386
G1 X51.46 Y157.177 E16.33091
G1 X50.833 Y156.655 E16.35805
G1 X50.275 Y156.164 E16.38277
G1 X48.669 Y154.709 E16.45484
G1 X48.066 Y154.147 E16.48226
G1 X47.52 Y153.606 E16.50783
G1 X45.665 Y151.709 E16.59607
G1 X44.798 Y150.756 E16.63892
G1 X43.496 Y149.269 E16.70466
G1 X42.993 Y148.675 E16.73055
G1 X42.519 Y148.087 E16.75567
G1 X41.149 Y146.328 E16.82982
G1 X40.707 Y145.742 E16.85424
G1 X40.239 Y145.086 E16.88104
G1 X38.986 Y143.269 E16.95445
G1 X38.584 Y142.667 E16.97853
G1 X38.148 Y141.972 E17.00581
G1 X37.037 Y140.147 E17.07688
G1 X36.683 Y139.544 E17.10013
G1 X36.252 Y138.765 E17.12974
G1 X35.25 Y136.882 E17.20069
G1 X34.872 Y136.143 E17.2283
G1 X34.525 Y135.417 E17.25506
G1 X33.631 Y133.476 E17.32614
G1 X33.311 Y132.749 E17.35255
G1 X33.023 Y132.046 E17.37782
G1 X32.223 Y130.006 E17.4507
G1 X31.943 Y129.258 E17.47727
G1 X31.696 Y128.534 E17.50271
G1 X31.018 Y126.461 E17.57525
G1 X30.795 Y125.742 E17.60029
G1 X30.567 Y124.929 E17.62838
G1 X30.027 Y122.884 E17.69872
G1 X29.832 Y122.094 E17.72579
G1 X29.674 Y121.374 E17.75031
G1 X29.224 Y119.171 E17.82509
G1 X29.11 Y118.566 E17.84557
G1 X28.963 Y117.645 E17.87659
G1 X28.652 Y115.479 E17.94937
G1 X28.558 Y114.749 E17.97385
G1 X28.478 Y113.948 E18.00062
G1 X28.294 Y111.802 E18.07226
G1 X28.245 Y111.119 E18.09503
G1 X28.205 Y110.19 E18.12596
G1 X28.146 Y108.084 E18.19604
G1 X28.136 Y107.293 E18.22235
G1 X28.149 Y106.446 E18.25052
G1 X28.211 Y104.377 E18.31937
G1 X28.246 Y103.577 E18.346
G1 X28.308 Y102.717 E18.37468
G1 X28.495 Y100.593 E18.4456
G1 X28.578 Y99.789 E18.47248
G1 X28.672 Y99.075 E18.49643
G1 X28.984 Y96.936 E18.56833
G1 X29.121 Y96.091 E18.5968
G1 X29.265 Y95.335 E18.6224
G1 X29.695 Y93.244 E18.6934
G1 X29.846 Y92.551 E18.71699
G1 X30.067 Y91.67 E18.7472
G1 X30.621 Y89.587 E18.81889
G1 X30.828 Y88.858 E18.84409
G1 X31.056 Y88.127 E18.86956
G1 X31.903 Y85.588 E18.95858
G1 X32.393 Y84.267 E19.00545
G1 X33.095 Y82.49 E19.06899
G1 X33.398 Y81.754 E19.09547
G1 X33.964 Y80.733 E19.1343
G1 X53.653 Y46.63 E20.44403
G1 X54.012 Y46.026 E20.4674
G1 X54.304 Y45.613 E20.48422
G1 F2100 E19.68422
;MESH:rPI-Arcade-LED-Logo-splitR v2.stl
G0 F3600 X56.078 Y47.501
G0 X57.014 Y48.04
G0 X162.324 Y44.604
G0 X162.622 Y44.895
;TYPE:WALL-INNER
G1 F2100 E20.48422
G1 F1800 X162.656 Y45.104 E20.49127
G1 X162.587 Y45.378 E20.50066
G1 X110.37 Y135.811 E23.97388
G1 X110.121 Y136.006 E23.9844
G1 X109.845 Y136.051 E23.9937
G1 X109.644 Y136.001 E24.00059
G1 X92.513 Y126.111 E24.6585
G1 X90.852 Y125.052 E24.72402
G1 X89.301 Y123.832 E24.78966
G1 X87.845 Y122.438 E24.8567
G1 X86.549 Y120.921 E24.92306
G1 X85.435 Y119.322 E24.98788
G1 X84.449 Y117.562 E25.05498
G1 X83.648 Y115.731 E25.12145
G1 X83.034 Y113.839 E25.18761
G1 X82.605 Y111.897 E25.25375
G1 X82.373 Y109.909 E25.32032
G1 X82.336 Y107.908 E25.38689
G1 X82.495 Y105.938 E25.45262
G1 X82.858 Y103.935 E25.52033
G1 X83.409 Y102.011 E25.58689
G1 X84.125 Y100.201 E25.65163
G1 X85.032 Y98.423 E25.71802
G1 X111.839 Y52.004 E27.50088
G1 X112.052 Y51.813 E27.5104
G1 X118.286 Y50.242 E27.72422
G1 X124.459 Y48.874 E27.93452
G1 X130.66 Y47.687 E28.14451
G1 X136.901 Y46.677 E28.35479
G1 X143.214 Y45.839 E28.5666
G1 X149.451 Y45.201 E28.77513
G1 X155.753 Y44.732 E28.98531
G1 X162.077 Y44.449 E29.19586
G1 X162.287 Y44.51 E29.20313
G1 X162.434 Y44.609 E29.20903
G1 X162.622 Y44.895 E29.22041
G0 F3600 X162.932 Y44.708
G0 X110.195 Y136.584
G0 X59.082 Y157.798
G0 X58.918 Y158.046
G1 F1800 X134.328 Y201.588 E32.11664
G1 X234.431 Y28.207 E38.77544
G1 X57.125 Y48.211 E44.71008
G1 X36.842 Y83.346 E46.05942
G1 X35.557 Y86.596 E46.17566
G1 X34.46 Y89.943 E46.29281
G1 X33.553 Y93.346 E46.40994
G1 X32.844 Y96.788 E46.52683
G1 X32.337 Y100.278 E46.64412
G1 X32.028 Y103.784 E46.76118
G1 X31.925 Y107.301 E46.87821
G1 X32.024 Y110.817 E46.9952
G1 X32.325 Y114.323 E47.11224
G1 X32.828 Y117.813 E47.22952
G1 X33.529 Y121.259 E47.34648
G1 X34.428 Y124.662 E47.46354
G1 X35.521 Y128.009 E47.58065
G1 X36.809 Y131.292 E47.69795
G1 X38.278 Y134.485 E47.81485
G1 X39.922 Y137.571 E47.93114
G1 X41.772 Y140.621 E48.04979
G1 X43.764 Y143.5 E48.16623
G1 X45.927 Y146.273 E48.2832
G1 X48.245 Y148.923 E48.4003
G1 X50.716 Y151.434 E48.51748
G1 X53.323 Y153.795 E48.63446
G1 X56.064 Y156.006 E48.75159
G1 X58.918 Y158.046 E48.86827
G0 F3600 X58.701 Y158.383
;TYPE:WALL-OUTER
G1 F1800 X134.474 Y202.134 E51.77842
G1 X235.174 Y27.72 E58.47691
G1 X56.879 Y47.836 E64.44465
G1 X36.481 Y83.172 E65.8017
G1 X35.181 Y86.46 E65.91929
G1 X34.076 Y89.829 E66.03722
G1 X33.163 Y93.254 E66.15511
G1 X32.45 Y96.719 E66.27277
G1 X31.939 Y100.232 E66.39085
G1 X31.628 Y103.76 E66.50864
G1 X31.525 Y107.301 E66.62647
G1 X31.624 Y110.84 E66.74422
G1 X31.927 Y114.369 E66.86203
G1 X32.434 Y117.881 E66.98005
G1 X33.139 Y121.35 E67.09779
G1 X34.044 Y124.775 E67.21561
G1 X35.145 Y128.144 E67.3335
G1 X36.441 Y131.449 E67.45157
G1 X37.92 Y134.663 E67.56925
G1 X39.574 Y137.769 E67.68629
G1 X41.436 Y140.839 E67.80571
G1 X43.442 Y143.737 E67.92293
G1 X45.619 Y146.528 E68.04066
G1 X47.951 Y149.195 E68.1585
G1 X50.439 Y151.723 E68.27647
G1 X53.063 Y154.099 E68.39421
G1 X55.822 Y156.324 E68.51209
G1 X58.701 Y158.383 E68.62982
G0 F3600 X58.874 Y158.483
G0 X59.223 Y157.88
G0 X110.195 Y136.584
G0 X163.056 Y45.039
G0 X162.237 Y45.009
G1 F1800 X162.261 Y45.141 E68.63428
G1 X110.049 Y135.572 E72.10735
G1 X109.961 Y135.639 E72.11103
G1 X109.832 Y135.652 E72.11534
G1 X92.728 Y125.773 E72.7723
G1 X91.084 Y124.726 E72.83713
G1 X89.549 Y123.517 E72.90211
G1 X88.136 Y122.163 E72.9672
G1 X86.867 Y120.679 E73.03215
G1 X85.757 Y119.082 E73.09683
G1 X84.8 Y117.369 E73.1621
G1 X84.021 Y115.586 E73.22681
G1 X83.416 Y113.72 E73.29206
G1 X82.997 Y111.812 E73.35703
G1 X82.772 Y109.885 E73.42156
G1 X82.736 Y107.923 E73.48682
G1 X82.895 Y105.968 E73.55206
G1 X83.24 Y104.056 E73.61668
G1 X83.781 Y102.158 E73.68233
G1 X84.497 Y100.349 E73.74703
G1 X85.378 Y98.623 E73.81149
G1 X112.159 Y52.244 E75.59276
G1 X112.23 Y52.18 E75.59594
G1 X118.372 Y50.632 E75.80662
G1 X124.534 Y49.267 E76.01653
G1 X130.724 Y48.082 E76.22615
G1 X136.953 Y47.073 E76.43603
G1 X143.255 Y46.237 E76.64747
G1 X149.481 Y45.6 E76.85563
G1 X155.771 Y45.132 E77.06541
G1 X162.053 Y44.853 E77.27456
G1 X162.164 Y44.904 E77.27862
G1 X162.237 Y45.009 E77.28288
G0 F3600 X162.261 Y45.141
G0 X162.228 Y45.198
G0 X162.836 Y45.55
G0 X110.195 Y136.584
G0 X59.121 Y157.723
;TYPE:SKIN
G1 F1800 X56.29 Y155.7 E77.39861
G1 X53.567 Y153.503 E77.51498
G1 X50.979 Y151.159 E77.63111
G1 X48.519 Y148.659 E77.74777
G1 X46.219 Y146.028 E77.864
G1 X44.07 Y143.273 E77.98021
G1 X42.1 Y140.431 E78.09522
G1 X40.238 Y137.357 E78.21476
G1 X38.616 Y134.311 E78.32954
G1 X37.157 Y131.137 E78.44572
G1 X35.877 Y127.876 E78.56224
G1 X34.792 Y124.551 E78.67857
G1 X33.899 Y121.17 E78.79488
G1 X33.202 Y117.749 E78.911
G1 X32.703 Y114.277 E79.02767
G1 X32.404 Y110.792 E79.144
G1 X32.305 Y107.3 E79.26019
G1 X32.404 Y103.808 E79.37638
G1 X32.715 Y100.324 E79.49272
G1 X33.218 Y96.851 E79.60944
G1 X33.919 Y93.435 E79.72543
G1 X34.824 Y90.054 E79.84184
G1 X35.913 Y86.728 E79.95824
G1 X37.189 Y83.504 E80.07356
G1 X57.355 Y48.564 E81.41534
G1 X233.724 Y28.669 E87.3186
G1 X134.186 Y201.066 E93.93967
G1 X59.121 Y157.723 E96.82265
G0 F3600 X110.195 Y136.584
G0 X110.217 Y136.373
G1 F1800 X110.504 Y136.216 E96.83353
G1 X110.696 Y136.007 E96.84297
G1 X162.977 Y45.455 E100.32067
G1 X163.027 Y44.951 E100.33752
G1 X162.947 Y44.693 E100.3465
G1 X162.782 Y44.424 E100.357
G1 X162.572 Y44.236 E100.36637
G1 X162.107 Y44.07 E100.3828
G1 X155.735 Y44.352 E100.59494
G1 X149.421 Y44.82 E100.80552
G1 X143.199 Y45.453 E101.01353
G1 X136.849 Y46.297 E101.22659
G1 X130.596 Y47.31 E101.43728
G1 X124.386 Y48.499 E101.64757
G1 X118.2 Y49.868 E101.8583
G1 X112.018 Y51.429 E102.07037
G1 X111.81 Y51.524 E102.07797
G1 X111.518 Y51.795 E102.09122
G1 X84.698 Y98.235 E103.87491
G1 X83.781 Y100.033 E103.94204
G1 X83.029 Y101.942 E104.01028
G1 X82.479 Y103.881 E104.07731
G1 X82.115 Y105.888 E104.14516
G1 X81.956 Y107.904 E104.21242
G1 X81.992 Y109.937 E104.28004
G1 X82.225 Y111.92 E104.34645
G1 X82.652 Y113.883 E104.41327
G1 X83.305 Y115.898 E104.48372
G1 X84.1 Y117.717 E104.54975
G1 X85.089 Y119.486 E104.61715
G1 X86.243 Y121.154 E104.68462
G1 X87.58 Y122.711 E104.75287
G1 X89.021 Y124.093 E104.81928
G1 X90.648 Y125.37 E104.88807
G1 X92.336 Y126.445 E104.95463
G1 X109.505 Y136.36 E105.61406
G1 X109.835 Y136.428 E105.62527
G1 X110.217 Y136.373 E105.6381
G0 F3600 X110.353 Y136.453
G0 X54.179 Y153.74
G1 F1800 X46.599 Y146.16 E105.99464
G1 X46.529 Y146.09
G0 F3600 X44.486 Y143.48
G1 F1800 X56.882 Y155.877 E106.57774
G1 X56.952 Y155.947
G0 F3600 X58.866 Y157.295
G1 F1800 X43.115 Y141.544 E107.31861
G1 X43.045 Y141.474
G0 F3600 X41.975 Y139.838
G1 F1800 X60.323 Y158.186 E108.18165
G1 X60.393 Y158.256
G0 F3600 X61.661 Y158.959
G1 F1800 X41.107 Y138.405 E109.14845
G1 X41.037 Y138.335
G0 F3600 X40.283 Y137.015
G1 F1800 X63 Y159.732 E110.21698
G1 X63.07 Y159.802
G0 F3600 X64.338 Y160.505
G1 F1800 X39.638 Y135.805 E111.3788
G1 X39.568 Y135.735
G0 F3600 X38.993 Y134.594
G1 F1800 X65.677 Y161.278 E112.63393
G1 X65.747 Y161.348
G0 F3600 X67.015 Y162.05
G1 F1800 X38.461 Y133.496 E113.97702
G1 X38.391 Y133.426
G0 F3600 X37.979 Y132.449
G1 F1800 X68.354 Y162.823 E115.40575
G1 X68.424 Y162.893
G0 F3600 X69.692 Y163.596
G1 F1800 X37.498 Y131.402 E116.92005
G1 X37.428 Y131.332
G0 F3600 X37.095 Y130.433
G1 F1800 X71.031 Y164.369 E118.5163
G1 X71.101 Y164.439
G0 F3600 X72.37 Y165.143
G1 F1800 X36.73 Y129.502 E120.19272
G1 X36.66 Y129.432
G0 F3600 X36.364 Y128.571
G1 F1800 X73.709 Y165.916 E121.94931
G1 X73.779 Y165.986
G0 F3600 X75.047 Y166.688
G1 F1800 X36.016 Y127.657 E123.78521
G1 X35.946 Y127.587
G0 F3600 X35.741 Y126.817
G1 F1800 X76.386 Y167.461 E125.697
G1 X76.456 Y167.531
G0 F3600 X77.724 Y168.234
G1 F1800 X35.468 Y125.977 E127.68462
G1 X35.398 Y125.907
G0 F3600 X35.194 Y125.138
G1 F1800 X79.063 Y169.007 E129.74808
G1 X79.133 Y169.077
G0 F3600 X80.402 Y169.78
G1 F1800 X34.937 Y124.315 E131.88662
G0 F3600 X34.733 Y123.546
G1 F1800 X81.74 Y170.553 E134.09768
G1 X81.81 Y170.623
G0 F3600 X83.079 Y171.326
G1 F1800 X34.53 Y122.777 E136.38128
G0 F3600 X34.327 Y122.008
G1 F1800 X84.417 Y172.098 E138.73736
G1 X84.487 Y172.168
G0 F3600 X85.756 Y172.871
G1 F1800 X34.124 Y121.24 E141.16595
G0 F3600 X33.971 Y120.521
G1 F1800 X87.094 Y173.644 E143.66469
G1 X87.164 Y173.714
G0 F3600 X88.433 Y174.417
G1 F1800 X33.826 Y119.81 E146.23323
G0 F3600 X33.681 Y119.099
G1 F1800 X89.771 Y175.19 E148.87156
G1 X89.841 Y175.26
G0 F3600 X91.11 Y175.963
G1 F1800 X33.537 Y118.389 E151.57964
G0 F3600 X33.395 Y117.682
G1 F1800 X92.449 Y176.736 E154.35736
G1 X92.519 Y176.806
G0 F3600 X93.787 Y177.509
G1 F1800 X33.299 Y117.021 E157.20253
G0 F3600 X33.204 Y116.36
G1 F1800 X95.126 Y178.281 E160.11513
G1 X95.196 Y178.351
G0 F3600 X96.464 Y179.054
G1 F1800 X33.11 Y115.7 E163.09511
G0 F3600 X33.014 Y115.038
G1 F1800 X97.803 Y179.827 E166.14258
G1 X97.873 Y179.897
G0 F3600 X99.142 Y180.601
G1 F1800 X32.919 Y114.378 E169.25751
G0 F3600 X32.859 Y113.752
G1 F1800 X100.481 Y181.374 E172.43824
G1 X100.551 Y181.444
G0 F3600 X101.819 Y182.146
G1 F1800 X32.806 Y113.133 E175.6844
G0 F3600 X32.752 Y112.514
G1 F1800 X103.158 Y182.919 E178.99606
G1 X103.228 Y182.989
G0 F3600 X104.496 Y183.692
G1 F1800 X32.699 Y111.895 E182.37317
G0 F3600 X32.647 Y111.277
G1 F1800 X105.835 Y184.465 E185.81571
G1 X105.905 Y184.535
G0 F3600 X107.173 Y185.238
G1 F1800 X32.601 Y110.666 E189.32335
G0 F3600 X32.584 Y110.083
G1 F1800 X108.512 Y186.011 E192.89477
G1 X108.582 Y186.081
G0 F3600 X109.85 Y186.784
G1 F1800 X32.568 Y109.501 E196.5299
G0 F3600 X32.551 Y108.918
G1 F1800 X111.189 Y187.557 E200.22881
G1 X111.259 Y187.627
G0 F3600 X112.528 Y188.329
G1 F1800 X32.534 Y108.336 E203.99146
G0 F3600 X32.518 Y107.754
G1 F1800 X113.866 Y189.102 E207.81782
G1 X113.936 Y189.172
G0 F3600 X115.205 Y189.875
G1 F1800 X32.508 Y107.178 E211.70764
G0 F3600 X32.523 Y106.628
G1 F1800 X116.543 Y190.648 E215.65968
G1 X116.613 Y190.718
G0 F3600 X117.882 Y191.421
G1 F1800 X32.54 Y106.079 E219.6739
G0 F3600 X32.555 Y105.529
G1 F1800 X119.22 Y192.194 E223.75036
G1 X119.29 Y192.264
G0 F3600 X120.559 Y192.967
G1 F1800 X32.571 Y104.978 E227.88907
G0 F3600 X32.586 Y104.428
G1 F1800 X121.897 Y193.739 E232.08999
G1 X121.967 Y193.809
G0 F3600 X123.236 Y194.512
G1 F1800 X32.602 Y103.878 E236.35313
G0 F3600 X32.645 Y103.356
G1 F1800 X124.575 Y195.286 E240.67724
G1 X124.645 Y195.356
G0 F3600 X125.914 Y196.059
G1 F1800 X32.692 Y102.837 E245.06211
G0 F3600 X32.738 Y102.317
G1 F1800 X127.252 Y196.832 E249.50779
G1 X127.322 Y196.902
G0 F3600 X128.591 Y197.605
G1 F1800 X32.784 Y101.798 E254.01425
G0 F3600 X32.831 Y101.279
G1 F1800 X129.929 Y198.377 E258.58145
G1 X129.999 Y198.447
G0 F3600 X131.268 Y199.15
G1 F1800 X32.877 Y100.759 E263.20946
G0 F3600 X32.929 Y100.245
G1 F1800 X132.607 Y199.923 E267.898
G1 X132.677 Y199.993
G0 F3600 X133.945 Y200.696
G1 F1800 X33 Y99.751 E272.64615
G0 F3600 X33.071 Y99.257
G1 F1800 X134.294 Y200.48 E277.40737
G0 F3600 X134.502 Y200.121
G1 F1800 X33.143 Y98.762 E282.17498
G0 F3600 X33.215 Y98.269
G1 F1800 X134.708 Y199.762 E286.9489
G0 F3600 X134.915 Y199.403
G1 F1800 X33.286 Y97.774 E291.72922
G0 F3600 X33.358 Y97.28
G1 F1800 X135.122 Y199.045 E296.51591
G0 F3600 X135.33 Y198.686
G1 F1800 X33.434 Y96.791 E301.30876
G0 F3600 X33.53 Y96.321
G1 F1800 X135.537 Y198.328 E306.10686
G0 F3600 X135.744 Y197.969
G1 F1800 X33.626 Y95.852 E310.91015
G0 F3600 X33.723 Y95.382
G1 F1800 X135.95 Y197.61 E315.71862
G0 F3600 X136.158 Y197.252
